img/logo.svg

<svg xmlns="http://www.w3.org/2000/svg" fill="none" viewBox="0 0 90 26"><path fill="#000" fill-rule="evenodd" d="M48.0552 23.87c-1.6696-.9803-2.9894-2.3505-3.9595-4.1105l3.8237-9.0378c-.0865.6087-.1298 1.2606-.1298 1.9559 0 1.7225.2616 3.1875.7848 4.3948.5232 1.2074 1.2637 2.1291 2.2216 2.765.9578.6278 2.0888.9417 3.3927.9417 1.1833 0 2.1935-.2093 3.0306-.6278.8452-.4266 1.4891-1.0263 1.9318-1.799.4282-.7342.6531-1.5954.6745-2.5838h-5.3109v-3.9361H64.862v3.115c0 2.1733-.4588 4.0408-1.3764 5.6023-.9176 1.5535-2.1813 2.7529-3.7912 3.598-1.6098.8371-3.4531 1.2557-5.5298 1.2557-2.3182 0-4.3546-.5111-6.1094-1.5334Zm2.7529-18.30395c-.4148.27416-.7896.60281-1.1246.98595L52.4127.10124C52.9466.03374 53.4944 0 54.0559 0c1.4006 0 2.7046.20526 3.912.61577 1.2073.40246 2.2779.97396 3.2116 1.71449.9418.74053 1.7105 1.62192 2.3061 2.64417.5957 1.01421.978 2.13305 1.147 3.35654h-5.3125c-.169-.5876-.4065-1.10677-.7123-1.55753-.3059-.45881-.6802-.84517-1.1229-1.15909-.4347-.32197-.9337-.56747-1.4972-.73651-.5553-.16903-1.1711-.25355-1.8473-.25355-1.2637 0-2.3745.31392-3.3323.94176Zm-8.757 7.13565c0 2.6965-.5111 4.9905-1.5333 6.8821-1.0143 1.8916-2.3987 3.3364-4.1535 4.3345-1.7466.9901-3.7107 1.4851-5.892 1.4851-2.1974 0-4.1695-.499-5.9162-1.4971-1.7467-.9982-3.1271-2.443-4.1413-4.3346-1.0142-1.8915-1.5213-4.1815-1.5213-6.87 0-2.6965.5071-4.99052 1.5213-6.8821 1.0142-1.89157 2.3946-3.33238 4.1413-4.32244C26.3028.49906 28.2749 0 30.4723 0c2.1813 0 4.1454.49905 5.892 1.49716 1.7548.99006 3.1392 2.43087 4.1535 4.32244 1.0222 1.89158 1.5333 4.1856 1.5333 6.8821Zm-5.3004 0c0-1.7467-.2616-3.21969-.7848-4.41903-.5151-1.19934-1.2436-2.1089-2.1854-2.72869-.9417-.61979-2.0445-.92969-3.3082-.92969-1.2637 0-2.3665.3099-3.3082.92969-.9418.61979-1.6743 1.52935-2.1975 2.72869-.5151 1.19934-.7727 2.67233-.7727 4.41903 0 1.7467.2576 3.2197.7727 4.419.5232 1.1994 1.2557 2.1089 2.1975 2.7287.9417.6198 2.0445.9297 3.3082.9297 1.2637 0 2.3665-.3099 3.3082-.9297.9418-.6198 1.6703-1.5293 2.1854-2.7287.5232-1.1993.7848-2.6723.7848-4.419ZM0 25.0653 10 .33807h6.228L7.54321 20.755h9.28559v4.3103H0Zm81.5563.2419c-.527.0642-1.068.0962-1.6231.0962-2.1974 0-4.1695-.499-5.9162-1.4971-1.7467-.9982-3.1271-2.443-4.1413-4.3346-1.0142-1.8915-1.5213-4.1815-1.5213-6.87 0-2.6965.5071-4.99052 1.5213-6.8821 1.0142-1.89157 2.3946-3.33238 4.1413-4.32244C75.7637.49906 77.7358 0 79.9332 0c2.1814 0 4.1454.49905 5.8921 1.49716 1.6976.95785 3.0487 2.33762 4.0532 4.13929l-3.7797 8.93385c.0752-.5835.1128-1.2064.1128-1.8686 0-1.7467-.2616-3.21969-.7848-4.41903-.5151-1.19934-1.2436-2.1089-2.1853-2.72869-.9418-.61979-2.0445-.92969-3.3083-.92969-1.2637 0-2.3664.3099-3.3082.92969-.9418.61979-1.6742 1.52935-2.1974 2.72869-.5152 1.19934-.7728 2.67233-.7728 4.41903 0 1.7467.2576 3.2197.7728 4.419.5232 1.1994 1.2556 2.1089 2.1974 2.7287.9418.6198 2.0445.9297 3.3082.9297 1.2638 0 2.3665-.3099 3.3083-.9297.3539-.2329.6778-.5068.9715-.8217l-2.6567 6.2795Z" clip-rule="evenodd"/></svg>

<svg width="90" height="26" viewBox="0 0 90 26" fill="none" xmlns="http://www.w3.org/2000/svg">
<path fill-rule="evenodd" clip-rule="evenodd" d="M48.0552 23.87C46.3856 22.8897 45.0658 21.5195 44.0957 19.7595L47.9194 10.7217C47.8329 11.3304 47.7896 11.9823 47.7896 12.6776C47.7896 14.4001 48.0512 15.8651 48.5744 17.0724C49.0976 18.2798 49.8381 19.2015 50.796 19.8374C51.7538 20.4652 52.8848 20.7791 54.1887 20.7791C55.372 20.7791 56.3822 20.5698 57.2193 20.1513C58.0645 19.7247 58.7084 19.125 59.1511 18.3523C59.5793 17.6181 59.8042 16.7569 59.8256 15.7685H54.5147V11.8324H64.862V14.9474C64.862 17.1207 64.4032 18.9882 63.4856 20.5497C62.568 22.1032 61.3043 23.3026 59.6944 24.1477C58.0846 24.9848 56.2413 25.4034 54.1646 25.4034C51.8464 25.4034 49.81 24.8923 48.0552 23.87ZM50.8081 5.56605C50.3933 5.84021 50.0185 6.16886 49.6835 6.552L52.4127 0.101241C52.9466 0.0337471 53.4944 0 54.0559 0C55.4565 0 56.7605 0.205256 57.9679 0.615767C59.1752 1.01823 60.2458 1.58973 61.1795 2.33026C62.1213 3.07079 62.89 3.95218 63.4856 4.97443C64.0813 5.98864 64.4636 7.10748 64.6326 8.33097H59.3201C59.1511 7.74337 58.9136 7.2242 58.6078 6.77344C58.3019 6.31463 57.9276 5.92827 57.4849 5.61435C57.0502 5.29238 56.5512 5.04688 55.9877 4.87784C55.4324 4.70881 54.8166 4.62429 54.1404 4.62429C52.8767 4.62429 51.7659 4.93821 50.8081 5.56605ZM42.0511 12.7017C42.0511 15.3982 41.54 17.6922 40.5178 19.5838C39.5035 21.4754 38.1191 22.9202 36.3643 23.9183C34.6177 24.9084 32.6536 25.4034 30.4723 25.4034C28.2749 25.4034 26.3028 24.9044 24.5561 23.9063C22.8094 22.9081 21.429 21.4633 20.4148 19.5717C19.4006 17.6802 18.8935 15.3902 18.8935 12.7017C18.8935 10.0052 19.4006 7.71118 20.4148 5.8196C21.429 3.92803 22.8094 2.48722 24.5561 1.49716C26.3028 0.499053 28.2749 0 30.4723 0C32.6536 0 34.6177 0.499053 36.3643 1.49716C38.1191 2.48722 39.5035 3.92803 40.5178 5.8196C41.54 7.71118 42.0511 10.0052 42.0511 12.7017ZM36.7507 12.7017C36.7507 10.955 36.4891 9.48201 35.9659 8.28267C35.4508 7.08333 34.7223 6.17377 33.7805 5.55398C32.8388 4.93419 31.736 4.62429 30.4723 4.62429C29.2086 4.62429 28.1058 4.93419 27.1641 5.55398C26.2223 6.17377 25.4898 7.08333 24.9666 8.28267C24.4515 9.48201 24.1939 10.955 24.1939 12.7017C24.1939 14.4484 24.4515 15.9214 24.9666 17.1207C25.4898 18.3201 26.2223 19.2296 27.1641 19.8494C28.1058 20.4692 29.2086 20.7791 30.4723 20.7791C31.736 20.7791 32.8388 20.4692 33.7805 19.8494C34.7223 19.2296 35.4508 18.3201 35.9659 17.1207C36.4891 15.9214 36.7507 14.4484 36.7507 12.7017ZM0 25.0653L10 0.338068H16.228L7.54321 20.755H16.8288V25.0653H0ZM81.5563 25.3072C81.0293 25.3714 80.4883 25.4034 79.9332 25.4034C77.7358 25.4034 75.7637 24.9044 74.017 23.9063C72.2703 22.9081 70.8899 21.4633 69.8757 19.5717C68.8615 17.6802 68.3544 15.3902 68.3544 12.7017C68.3544 10.0052 68.8615 7.71118 69.8757 5.8196C70.8899 3.92803 72.2703 2.48722 74.017 1.49716C75.7637 0.499053 77.7358 0 79.9332 0C82.1146 0 84.0786 0.499053 85.8253 1.49716C87.5229 2.45501 88.874 3.83478 89.8785 5.63645L86.0988 14.5703C86.174 13.9868 86.2116 13.3639 86.2116 12.7017C86.2116 10.955 85.95 9.48201 85.4268 8.28267C84.9117 7.08333 84.1832 6.17377 83.2415 5.55398C82.2997 4.93419 81.197 4.62429 79.9332 4.62429C78.6695 4.62429 77.5668 4.93419 76.625 5.55398C75.6832 6.17377 74.9508 7.08333 74.4276 8.28267C73.9124 9.48201 73.6548 10.955 73.6548 12.7017C73.6548 14.4484 73.9124 15.9214 74.4276 17.1207C74.9508 18.3201 75.6832 19.2296 76.625 19.8494C77.5668 20.4692 78.6695 20.7791 79.9332 20.7791C81.197 20.7791 82.2997 20.4692 83.2415 19.8494C83.5954 19.6165 83.9193 19.3426 84.213 19.0277L81.5563 25.3072Z" fill="black"/>
</svg>
